cheelee/dist/images/telegram.svg

<svg width="32" height="28" viewBox="0 0 32 28" fill="none" xmlns="http://www.w3.org/2000/svg">
<path d="M1.14097 14.0244L8.21166 16.3297L10.9126 24.9823C11.24 25.9292 11.0763 26.3049 12.0322 26.3049C12.7689 26.3049 13.0962 25.9548 13.5055 25.5365C13.7657 25.2701 15.3126 23.7016 17.0404 21.9504L24.3943 27.6189C25.7472 28.3976 26.7244 27.9938 27.0616 26.3075L31.8906 2.5763C32.3816 0.509198 31.1351 -0.428299 29.8444 0.185599L1.49373 11.5876C-0.441113 12.397 -0.428836 13.5223 1.14097 14.0244ZM25.2561 5.30939C26.0517 4.80649 26.7809 5.07715 26.1826 5.63128L12.5372 18.4745L12.006 24.3864L9.32067 15.7978L25.2561 5.30939Z" fill="#01FFC2"/>
</svg>

<svg xmlns="http://www.w3.org/2000/svg" width="32" height="28" fill="none" viewBox="0 0 32 28"><path fill="#01FFC2" d="m1.141 14.024 7.07 2.306 2.702 8.652c.327.947.163 1.323 1.12 1.323.736 0 1.063-.35 1.473-.768.26-.267 1.807-1.835 3.534-3.587l7.354 5.669c1.353.779 2.33.375 2.668-1.311L31.89 2.576c.49-2.067-.756-3.004-2.047-2.39L1.494 11.588c-1.935.809-1.923 1.934-.353 2.436M25.256 5.31c.796-.503 1.525-.232.927.322L12.537 18.474l-.531 5.912-2.685-8.588z"/></svg>
